X:1
T: Aldridge's Hornpipe
C:
R:Reel
I:speed 232
K:A
M:4/4
L:1/8
|:E2|A2A2 Acec|defg aecA|BEcE dEcE|BdcB AGFE|
A2A2 Acec|defg aecA|gbge faf^d|e2e'2 e2:|
|:cd|ecec eaga|fedc dcBA|GABc defg|afe^d e2E2|
AcAc BdBd|cAce aecA|GEGB dBAG|A2a2 A2:|
